X:1
T:James Gibb editions
T:All praise to Him who built the hills - Barnby
%%score [ ( 1 2 ) ( 3 4 ) ]
L:1/8
Q:1/4=80
M:4/4
K:G
V:1 treble nm="Midi_74"
V:2 treble 
V:3 bass nm="Midi_74"
V:4 bass 
V:1
"^Horatio Bonar\n(1808-89)""^All praise to Him who built the hills""^Joseph Barnby\n(1838-96)""^L.M." D2 | %1
 G2 A2 B2 c2 | d2 e2 d2 || d2 | B2"^1" A2 F2"^1" G2 | F2 E2 D2 ||[M:4/4] D2 | A2 B2 c2 B2 | %8
 A2"^1" ^G2 A2 || d2 | B2 G2 E2 G2 | G2 A2 G4 || G4 G4 |] %13
V:2
 D2 | D2 D2 D2 G2 | G2 G2 G2 || D2 | D2 E2 D2 D2 | D2 ^C2 x2 ||[M:4/4] D2 | E2 ^G2 A2 =F2 | %8
 E2 E2 E2 || D2 | D2 D2 D2 C2 | D2 F2 G4 || E4 D4 |] %13
V:3
 B,2 | B,2 A,2 G,2 G,2 | D2 C2 B,2 || A,2 | G,2 E,2 A,2 G,2 | A,2"^1" G,2 F,2 || %6
[M:4/4]"^1 All praise to Him Who built the hills;\nAll praise to Him the streams Who fills;\nAll praise to Him Who lights each star\nThat sparkles in the sky afar.\n\n2 All praise to Him Who wakes the morn,\nAnd bids it glow with beams new-born;\nWho draws the shadows of the night,\nLike curtains, o'er our wearied sight.\n\n3 All praise to Him Whose love hath given,\nIn Christ His Son, the life of heaven;\nWho gives us, for our darkness, light,\nAnd turns to day our deepest night." D2 | %7
 E2 E2 E2 D2 | C2 B,2 C2 || %9
"^4 All praise to Him in love Who came,\nTo bear our woe, and sin, and shame;\nWho lived to die, Who died to rise,\nThe all-prevailing the sacrifice.\n\n5 All praise to Him Who sheds abroad\nWithin our hearts the love of God:\nThe Spirit of all truth and peace,\nThe fount of joy and holiness.\n\n6 To Father, Son, and Spirit now\nOur hands we lift, our knees we bow:\nTo Thee, blest Trinity, we raise\nE'en here, in exile, songs of praise." A,2 | %10
 B,2 D2 G,3 A, | B,2 C2"^1" B,4 || C4 B,4 |] %13
V:4
 G,2 | G,2 F,2 G,2 E,2 | B,,2 C,2 G,2 || F,2 | G,2 ^C,2 D,2 B,,2 | A,,2 A,,2 D,2 ||[M:4/4] D2 | %7
 C2 B,2 A,2 D,2 | E,2 E,2 A,2 || F,2 | G,2 B,,2 C,2 E,2 | D,2 D,2 G,,4 || C,4 G,,4 |] %13

